papirus/32x32/apps/r.svg

<svg height="32" viewBox="0 0 32 32.000001" width="32" xmlns="http://www.w3.org/2000/svg"><g transform="translate(0 -1020.3622)"><circle cx="16" cy="1036.3622" fill="#ccc" r="14"/><path d="m16 5a12 8.4999882 0 0 0 -12 8.5 12 8.4999882 0 0 0  12 8.5 12 8.4999882 0 0 0  12-8.5 12 8.4999882 0 0 0 -12-8.5zm2 3a9.0000001 5.5000085 0 0 1 9 5.5 9.0000001 5.5000085 0 0 1 -9 5.5 9.0000001 5.5000085 0 0 1 -9-5.5 9.0000001 5.5000085 0 0 1  9-5.5z" opacity=".2" transform="translate(0 1020.3622)"/><path d="m23.1 1037.8622c0 0 .38714-.111.773249.086.133979.068.36578.2053.53299.3847.163789.1758.243646.3539.243646.3539l2.350115 4.6754h-5c0 0-1.117329-3.2659-2.163083-4.6639-.208077-.1702-.38185-.3525-.586917-.3361h-1.250303l.000606 4.9973h-4.000303v-13.9973h7.578502c.821498 0 4.3.5 4.421498 4-.121498 3.5-2.9 4.5-2.9 4.5zm-5.099697-5.5009v3.0009h2.999697c0 0 1 .036 1-1.5 0-1.6134-1-1.4991-1-1.4991z" fill="#1e62b2" fill-rule="evenodd"/><path d="m16 2a14 14 0 0 0 -14 14 14 14 0 0 0  .0214844.585938 14 14 0 0 1  13.9785156-13.585938 14 14 0 0 1  13.978516 13.414062 14 14 0 0 0  .021484-.414062 14 14 0 0 0 -14-14z" fill="#fff" opacity=".2" transform="translate(0 1020.3622)"/><path d="m29.978516 15.414062a14 14 0 0 1 -13.978516 13.585938 14 14 0 0 1 -13.9785156-13.414062 14 14 0 0 0 -.0214844.414062 14 14 0 0 0  14 14 14 14 0 0 0  14-14 14 14 0 0 0 -.021484-.585938z" opacity=".3" transform="translate(0 1020.3622)"/></g></svg>

<?xml version="1.0" encoding="UTF-8" standalone="no"?>
<!-- Created with Inkscape (http://www.inkscape.org/) -->

<svg
   xmlns:dc="http://purl.org/dc/elements/1.1/"
   xmlns:cc="http://creativecommons.org/ns#"
   xmlns:rdf="http://www.w3.org/1999/02/22-rdf-syntax-ns#"
   xmlns:svg="http://www.w3.org/2000/svg"
   xmlns="http://www.w3.org/2000/svg"
   xmlns:sodipodi="http://sodipodi.sourceforge.net/DTD/sodipodi-0.dtd"
   xmlns:inkscape="http://www.inkscape.org/namespaces/inkscape"
   width="32"
   height="32"
   viewBox="0 0 32 32.000001"
   id="svg4184"
   version="1.1"
   inkscape:version="0.91 r13725"
   sodipodi:docname="r.svg">
  <defs
     id="defs4186" />
  <sodipodi:namedview
     id="base"
     pagecolor="#ffffff"
     bordercolor="#666666"
     borderopacity="1.0"
     inkscape:pageopacity="0.0"
     inkscape:pageshadow="2"
     inkscape:zoom="1"
     inkscape:cx="20.833064"
     inkscape:cy="13.857057"
     inkscape:document-units="px"
     inkscape:current-layer="layer1"
     showgrid="false"
     units="px"
     inkscape:window-width="1600"
     inkscape:window-height="849"
     inkscape:window-x="0"
     inkscape:window-y="0"
     inkscape:window-maximized="1">
    <inkscape:grid
       type="xygrid"
       id="grid4770" />
  </sodipodi:namedview>
  <metadata
     id="metadata4189">
    <rdf:RDF>
      <cc:Work
         rdf:about="">
        <dc:format>image/svg+xml</dc:format>
        <dc:type
           rdf:resource="http://purl.org/dc/dcmitype/StillImage" />
        <dc:title></dc:title>
      </cc:Work>
    </rdf:RDF>
  </metadata>
  <g
     inkscape:label="Layer 1"
     inkscape:groupmode="layer"
     id="layer1"
     transform="translate(0,-1020.3622)">
    <g
       id="g4166">
      <circle
         r="14"
         cy="1036.3622"
         cx="16"
         id="path4520"
         style="opacity:1;fill:#cccccc;fill-opacity:1;stroke:none;stroke-width:2;stroke-miterlimit:4;stroke-dasharray:none;stroke-opacity:1" />
      <path
         id="path4163"
         transform="translate(0,1020.3622)"
         d="M 16 5 A 12 8.4999882 0 0 0 4 13.5 A 12 8.4999882 0 0 0 16 22 A 12 8.4999882 0 0 0 28 13.5 A 12 8.4999882 0 0 0 16 5 z M 18 8 A 9.0000001 5.5000085 0 0 1 27 13.5 A 9.0000001 5.5000085 0 0 1 18 19 A 9.0000001 5.5000085 0 0 1 9 13.5 A 9.0000001 5.5000085 0 0 1 18 8 z "
         style="opacity:0.2;fill:#000000;fill-opacity:1;stroke:none;stroke-width:0.5;stroke-linecap:round;stroke-linejoin:round;stroke-miterlimit:4;stroke-dasharray:none;stroke-opacity:1" />
      <path
         sodipodi:nodetypes="cscccccscccccccccccsc"
         style="display:inline;fill:#1e62b2;fill-opacity:1;fill-rule:evenodd;enable-background:new"
         inkscape:connector-curvature="0"
         d="m 23.1,1037.8622 c 0,0 0.38714,-0.111 0.773249,0.086 0.133979,0.068 0.36578,0.2053 0.53299,0.3847 0.163789,0.1758 0.243646,0.3539 0.243646,0.3539 L 27,1043.3622 l -5,0 c 0,0 -1.117329,-3.2659 -2.163083,-4.6639 -0.208077,-0.1702 -0.38185,-0.3525 -0.586917,-0.3361 l -1.250303,0 6.06e-4,4.9973 -4.000303,0 0,-13.9973 7.578502,0 c 0.821498,0 4.3,0.5 4.421498,4 -0.121498,3.5 -2.9,4.5 -2.9,4.5 z m -5.099697,-5.5009 0,3.0009 2.999697,0 c 0,0 1,0.036 1,-1.5 0,-1.6134 -1,-1.4991 -1,-1.4991 z"
         id="path3647" />
      <path
         id="circle4151"
         transform="translate(0,1020.3622)"
         d="M 16 2 A 14 14 0 0 0 2 16 A 14 14 0 0 0 2.0214844 16.585938 A 14 14 0 0 1 16 3 A 14 14 0 0 1 29.978516 16.414062 A 14 14 0 0 0 30 16 A 14 14 0 0 0 16 2 z "
         style="opacity:0.2;fill:#ffffff;fill-opacity:1;stroke:none;stroke-width:2;stroke-miterlimit:4;stroke-dasharray:none;stroke-opacity:1" />
      <path
         id="circle4156"
         transform="translate(0,1020.3622)"
         d="M 29.978516 15.414062 A 14 14 0 0 1 16 29 A 14 14 0 0 1 2.0214844 15.585938 A 14 14 0 0 0 2 16 A 14 14 0 0 0 16 30 A 14 14 0 0 0 30 16 A 14 14 0 0 0 29.978516 15.414062 z "
         style="opacity:0.3;fill:#000000;fill-opacity:1;stroke:none;stroke-width:2;stroke-miterlimit:4;stroke-dasharray:none;stroke-opacity:1" />
    </g>
  </g>
</svg>
